X: 1007
T: Down the Burn Davie
P: Longways for as many as will.
R: reel
B: "Caledonian Country Dances" printed by John Walsh for John Johnson, London
S: http://imslp.org/wiki/Caledonian_Country_Dances_with_a_Thorough_Bass_(Various)
Z: 2013 John Chambers <jc:trillian.mit.edu>
N: 2nd part has initial repeat, no final repeat.
M: C|
L: 1/8
K: G
% - - - - - - - - - - - - - - - - - - - - - - - - -
V: 1
G |\
D3E (GE)(GA) | {c}B2(AG) G2ga | (ba)(ge) (ge)(dB) | d2(AB) TA3d |\
(dB)(AG) (DE)(GA) | {c}B2AG g3d | (ef)(gd) (ga)(bd) | (cB)(AG) TG3 :|
|: b/a/ |\
g3a (ba)(ge) | (dB)(de) g3G | (AB)(ge) (cB)(AG) | c2Bc A3e |\
(dB)(AG) (DE)(GA) | {c}B2AG g3d | (ef)(gd) (ga)(bd) | cBAG G3 |]
% - - - - - - - - - - - - - - - - - - - - - - - - -
V: 2 clef=bass middle=d
z |\
gabc' b3a | g2d2 B2d2 | G2z2 B2d2 | f2g2 dedc |\
B2c2 dcBA | G2A2 BABG | c2B2 A2G2 | A2d2 G3  :|
|: z |\
gGBd g2c2 | B2zc GABG | c2B2 A4   | afgc dedc |\
B2c2 dcBA | G2A2 BABG | c2B2 A2G2 | A2d2 G3  |]
% - - - - - - - - - - - - - - - - - - - - - - - - -
%%begintext align
Lead up all and back .|
that again, the 1st Man moves to the 2d Wo. salute her, turn her about, and fall into their own Places,
the 1st Wo. and 2d Man do the same :|
The 1st Mand and 2d Wo. go Back to Back, and fall into their own Places,
the 1st Wo. and 2d Man do as much :|
The two Men clap Hands, and the two We. then turn all round single,
then clap Hands with your own, and cast off into the 2d Cu. Place :|
Do this to the last.
%%endtext

%%sep 1 1 500
%%sep 1 1 500
